icons/console_container.svg

<?xml version="1.0" encoding="UTF-8" standalone="no"?>
<svg
   xmlns:dc="http://purl.org/dc/elements/1.1/"
   xmlns:cc="http://creativecommons.org/ns#"
   xmlns:rdf="http://www.w3.org/1999/02/22-rdf-syntax-ns#"
   xmlns:svg="http://www.w3.org/2000/svg"
   xmlns="http://www.w3.org/2000/svg"
   height="16"
   viewBox="0 0 16 16"
   width="16"
   version="1.1"
   id="svg41">
  <metadata
     id="metadata47">
    <rdf:RDF>
      <cc:Work
         rdf:about="">
        <dc:format>image/svg+xml</dc:format>
        <dc:type
           rdf:resource="http://purl.org/dc/dcmitype/StillImage" />
        <dc:title></dc:title>
      </cc:Work>
    </rdf:RDF>
  </metadata>
  <defs
     id="defs45">
    <clipPath
       clipPathUnits="userSpaceOnUse"
       id="clipPath85">
      <g
         id="use87">
        <path
           id="path184"
           d="m 1,5 v 8 c 0,1.1046 0.89543,2 2,2 h 10 c 1.1046,0 2,-0.8954 2,-2 V 5 Z M 3.140625,5.9550781 7.6855469,8.1992188 V 8.9355469 L 3.140625,11.107422 V 9.8789062 L 6.0996094,8.5566406 3.140625,7.1933594 Z M 8.03125,13.111328 h 4.828125 v 0.933594 H 8.03125 Z" />
      </g>
    </clipPath>
  </defs>
  <g
     id="layer5">
    <path
       id="path39"
       style="display:inline;fill:#a5efac;fill-opacity:1"
       d="m 3,1.0112264 c -1.1046,0 -2,0.8954 -2,2 v 1 h 14 v -1 c 0,-1.1046 -0.89543,-2 -2,-2 z m 9,1 h 1 v 1 H 12 Z M 1.021484,5.020992 v 4.1113282 c 0,4.6124508 -0.01341,4.2927908 0.203125,4.7421868 0.270945,0.562324 0.776426,0.955427 1.392578,1.082031 0.14351,0.02949 1.14461,0.03485 5.460938,0.03125 l 5.285156,-0.0039 0.189453,-0.06445 c 0.697731,-0.234105 1.152118,-0.702559 1.369141,-1.410156 l 0.0625,-0.201172 0.0078,-4.1445308 0.0078,-4.1425872 H 8.009741 Z m 2.107422,0.921875 1.291016,0.6367188 c 0.710247,0.3504139 1.738732,0.8565509 2.285156,1.125 L 7.699219,8.192867 v 0.3828122 0.384766 l -2.25,1.0742188 c -1.237817,0.591529 -2.266571,1.082643 -2.285157,1.089843 -0.02645,0.01024 -0.03346,-0.12493 -0.0332,-0.61914 V 9.8745072 L 4.587894,9.2260702 C 5.389136,8.8692222 6.038213,8.5694372 6.031253,8.5620072 6.024253,8.5546072 5.372781,8.2507157 4.582034,7.8862264 L 3.144534,7.224117 3.136734,6.583492 Z m 4.894531,7.162109 h 2.419922 2.419922 v 0.486328 0.486328 H 10.443359 8.023437 v -0.486328 z" />
  </g>
</svg>

<svg width="16" height="16" version="1.1" viewBox="0 0 16 16" xmlns="http://www.w3.org/2000/svg">
 <path d="m3 1.0112c-1.1046 0-2 .8954-2 2v1h14v-1c0-1.1046-.89543-2-2-2zm9 1h1v1h-1zm-10.979 3.0098v4.1113c0 4.6125-.01341 4.2928.20312 4.7422.27094.56232.77643.95543 1.3926 1.082.14351.02949 1.1446.03485 5.4609.03125l5.2852-.0039.18945-.06445c.69773-.2341 1.1521-.70256 1.3691-1.4102l.0625-.20117.0078-4.1445.0078-4.1426h-6.9902zm2.1074.92188 1.291.63672c.71025.35041 1.7387.85655 2.2852 1.125l.99414.48828v.76758l-2.25 1.0742c-1.2378.59153-2.2666 1.0826-2.2852 1.0898-.02645.01024-.03346-.12493-.0332-.61914v-.63086l1.457-.64844c.80124-.35685 1.4503-.65663 1.4434-.66406-.007-.0074-.65847-.31129-1.4492-.67578l-1.4375-.66211-.0078-.64062zm4.8945 7.1621h4.8398v.97266h-4.8398v-.48633z" fill="#a5efac"/>
</svg>
